X: 1
T: Miss J Rose's Reel
C: R.Mackintosh
R: jig
B: RSCDS "Scottish Country Dances for Children"
Z: 2011 John Chambers <jc:trillian.mit.edu>
M: 6/8
L: 1/8
K: F
A/B/ \
| "F"c2A AFA | "Bb"def "(C7)"Bcd | "F"c2A "(Dm)"AFA | "G(m)"GAF "C7"EDC \
| "F"c2A AFA | "Bb"def "(C7)"Bcd | "F"cBA "C7"BAG | "F"AFF F2 :|
c \
| "F"ABc cAF | "Bb"def "(C7)"f2c | "F"ABc cAF | "C7"EFG GEC \
| "F"ABc cAF | "Bb"def "F"f2c | "Bb"dcB "C7"ABG | "F"AFF F2 ||
c \
| "F"ABc cAF | "Bb"def "(C7)"f2c | "F"ABc cAF | "C7"EFG GEC \
| "Bb"DEF "C"EFG | "Dm"FGA "C7"Bcd | "F"cAF "C7"GEC | "F"F3- F2 |]
